!!!!SEGMENT: ss017-ChineseSerenade_M.krn
!!!OTL: Chinese Serenade
!!!OPR:The Remick Folio of Moving Picture Music
!!!YOY:1914
!!!ONB: National
**kern	**dynam
*clefG2	*
*k[]	*
*a:	*
*M2/4	*
=1	=1
!LO:TX:a:B:t=Allegro Moderato	!
8ee^^L	f
16eeL	.
16dd#XJJ	.
8eeL	.
8bJ	.
=2	=2
8ccL	.
8eeJ	.
16ccLL	.
16bJ	.
8aJ	.
=3	=3
8ee^^L	.
16eeL	.
16dd#XJJ	.
8eeL	.
8bJ	.
=4	=4
8ccL	.
8eeJ	.
16ccLL	.
16bJ	.
8aJ	.
=5	=5
8bL	.
8eeJ	.
16ccLL	.
16bJ	.
8aJ	.
=6	=6
8bL	.
8eeJ	.
16ccLL	.
16bJ	.
8aJ	.
=7	=7
8ee	.
8r	.
8e'	.
8r	.
=8	=8
8e'	.
8r	.
8e'	.
8r	.
=9!|:	=9!|:
(8qff/	mf
4ee^)	.
(8qff/	.
4ee^)	.
=10	=10
(8qff/	.
8eeL)	.
8aaJ	.
4ee^	.
=11	=11
(8qff/	.
8eeL)	.
8bbJ	.
4ee^	.
=12	=12
(8qff/	.
8eeL)	.
8cccJ	.
4ee^	.
=13	=13
(8qff/	.
4ee^)	.
(8qff/	.
4ee^)	.
=14	=14
(8qff/	.
8eeL)	.
8aaJ	.
4ee^	.
=15	=15
(8qff/	.
8ee)	.
4eee^	.
8gg#X	.
=16	=16
8aa	.
8r	.
4a^	.
=:|!	=:|!
*-	*-
!!!ENC: Yukiko Yoden
!!!END: 2022/03/21